src/sym-mjp-s.svg

<svg width="32" height="32" viewBox="0 0 32 32" fill="none" xmlns="http://www.w3.org/2000/svg">
<path d="M9.24525 0.0640259L2.78125 6.52803H8.02925C8.73325 3.96803 11.4852 0.544026 12.3172 0.0640259H9.24525Z" fill="black"/>
<path d="M15.4532 6.52803V0.0640259H13.9812C11.242 2.03523 9.68258 5.19469 9.24525 6.52803H15.4532Z" fill="black"/>
<path d="M16.7012 6.52803H22.9732C21.514 3.04643 19.1439 0.768026 18.1412 0.0640259H16.7012V6.52803Z" fill="black"/>
<path d="M24.1892 6.52803H29.2772L22.7492 0.0640259H19.8692C21.9428 1.95843 23.3892 4.60803 24.1892 6.52803Z" fill="black"/>
<path d="M22.8133 32L29.2773 25.536L24.0293 25.536C23.3253 28.096 20.5733 31.52 19.7413 32L22.8133 32Z" fill="black"/>
<path d="M16.6053 25.536L16.6053 32L18.0773 32C20.8165 30.0288 22.376 26.8693 22.8133 25.536L16.6053 25.536Z" fill="black"/>
<path d="M15.3573 25.536L9.08535 25.536C10.5445 29.0176 12.9147 31.296 13.9173 32L15.3573 32L15.3573 25.536Z" fill="black"/>
<path d="M7.86935 25.536L2.78135 25.536L9.30935 32L12.1893 32C10.1157 30.1056 8.66935 27.456 7.86935 25.536Z" fill="black"/>
<path d="M2.8125 22H4.7965V19.648C4.7965 19.04 4.7805 18.4373 4.7485 17.84C4.72717 17.232 4.67383 16.6293 4.5885 16.032C4.50317 15.4347 4.4125 14.8427 4.3165 14.256C4.23117 13.6587 4.16717 13.056 4.1245 12.448L6.1565 18.464H7.4045L9.4365 12.448C9.39383 13.056 9.3245 13.6587 9.2285 14.256C9.14317 14.8427 9.05783 15.4347 8.9725 16.032C8.89783 16.6293 8.8445 17.232 8.8125 17.84C8.7805 18.4373 8.7645 19.04 8.7645 19.648V22H10.7485V10.24H8.9405L6.7805 16.64L4.6205 10.24H2.8125V22Z" fill="black"/>
<path d="M15.5513 20.352C15.3166 20.352 15.0819 20.3093 14.8472 20.224C14.6233 20.128 14.4473 19.9787 14.3193 19.776C14.2019 19.5627 14.1433 19.3333 14.1433 19.088H12.1593C12.1593 19.4827 12.2286 19.872 12.3673 20.256C12.5166 20.6293 12.7299 20.96 13.0072 21.248C13.2952 21.5253 13.6259 21.7333 13.9993 21.872C14.3726 22.0107 14.7566 22.0907 15.1512 22.112C15.5459 22.144 15.9352 22.128 16.3193 22.064C16.7139 22.0107 17.0873 21.888 17.4392 21.696C17.7912 21.504 18.0846 21.248 18.3193 20.928C18.5646 20.608 18.7299 20.256 18.8153 19.872C18.9113 19.488 18.9592 19.0987 18.9592 18.704V10.24H14.7513V12.016H16.9913V18.704C16.9913 18.9067 16.9646 19.1093 16.9113 19.312C16.8686 19.5147 16.7779 19.7013 16.6392 19.872C16.5112 20.0427 16.3459 20.1653 16.1433 20.24C15.9513 20.3147 15.7539 20.352 15.5513 20.352Z" fill="black"/>
<path d="M21.938 22H23.922V17.568H25.458C25.81 17.568 26.1567 17.5413 26.498 17.488C26.85 17.424 27.186 17.3173 27.506 17.168C27.826 17.008 28.1033 16.8 28.338 16.544C28.5833 16.2773 28.754 15.9733 28.85 15.632C28.9567 15.2907 29.01 14.9493 29.01 14.608V13.2C29.01 12.8587 28.9567 12.5173 28.85 12.176C28.754 11.8347 28.5833 11.536 28.338 11.28C28.1033 11.0133 27.826 10.8053 27.506 10.656C27.186 10.496 26.85 10.3893 26.498 10.336C26.1567 10.272 25.81 10.24 25.458 10.24H21.938V22ZM23.922 15.792V12.016H25.458C25.65 12.016 25.8367 12.0373 26.018 12.08C26.1993 12.112 26.37 12.176 26.53 12.272C26.7007 12.368 26.8287 12.5013 26.914 12.672C26.9993 12.8427 27.042 13.0187 27.042 13.2V14.608C27.042 14.7893 26.9993 14.9653 26.914 15.136C26.8287 15.3067 26.7007 15.44 26.53 15.536C26.37 15.632 26.1993 15.7013 26.018 15.744C25.8367 15.776 25.65 15.792 25.458 15.792H23.922Z" fill="black"/>
</svg>

<svg xmlns="http://www.w3.org/2000/svg" viewBox="0 0 32 32">
	<path
		d="M9.2.1L2.8 6.5H8c.7-2.6 3.5-6 4.3-6.5H9.2zm6.3 6.4V.1H14c-2.7 2-4.3 5.1-4.7 6.5h6.2zm1.2 0H23C21.5 3 19.2.7 18.2 0h-1.4v6.5zm7.5 0h5.1L22.8 0h-2.9c2 2 3.5 4.6 4.3 6.5zM22.8 32l6.5-6.5H24c-.7 2.6-3.5 6-4.3 6.5h3.1zm-6.2-6.5V32h1.5c2.7-2 4.3-5.1 4.7-6.5h-6.2zm-1.2 0H9.1c1.5 3.5 3.8 5.8 4.8 6.5h1.4v-6.5zm-7.5 0H2.8L9.3 32h2.9c-2.1-1.9-3.5-4.5-4.3-6.5zM2.8 22h2v-2.4-1.8c0-.6-.1-1.2-.2-1.8l-.3-1.8c-.1-.6-.1-1.2-.2-1.8l2 6h1.2l2-6c0 .6-.1 1.2-.2 1.8 0 .6 0 1.2-.1 1.8-.1.6-.1 1.2-.2 1.8V22h2V10.2H8.9l-2.2 6.4-2.2-6.4H2.8V22zm12.8-1.6c-.2 0-.5 0-.7-.1-.2-.1-.4-.2-.5-.4-.1-.2-.2-.4-.2-.7h-2c0 .4.1.8.2 1.2.1.4.4.7.6 1 .3.3.6.5 1 .6.4.1.8.2 1.2.2h1.2c.4-.1.8-.2 1.1-.4.4-.2.6-.4.9-.8.2-.3.4-.7.5-1.1.1-.4.1-.8.1-1.2v-8.5h-4.2V12H17v6.7c0 .2 0 .4-.1.6 0 .2-.1.4-.3.6-.1.2-.3.3-.5.4-.1 0-.3.1-.5.1zm6.3 1.6h2v-4.4h1.5c.4 0 .7 0 1-.1.4-.1.7-.2 1-.3.3-.2.6-.4.8-.6.2-.3.4-.6.5-.9.1-.3.2-.7.2-1v-1.4c0-.3-.1-.7-.2-1-.1-.3-.3-.6-.5-.9-.2-.3-.5-.5-.8-.6-.3-.2-.7-.3-1-.3-.3-.1-.7-.1-1-.1h-3.5V22zm2-6.2V12h1.5c.2 0 .4 0 .6.1.2 0 .4.1.5.2.2.1.3.2.4.4s.1.3.1.5v1.4c0 .2 0 .4-.1.5s-.2.3-.4.4c-.2.1-.3.2-.5.2h-2.1z" />
</svg>
